src/16/actions/view-calendar-list.svg

<svg xmlns="http://www.w3.org/2000/svg" viewBox="0 0 16 16"><path d="M3 2v2H2v1h1v6H2v1h1v2h11V2H3zm2 1h8v10H5V3zm1 1v1h6V4H6zm0 4v1h6V8H6zm4 3v1h2v-1h-2z" fill="currentColor" color="#5d656b"/></svg>

<svg xmlns="http://www.w3.org/2000/svg" viewBox="0 0 16 16">
  <defs id="defs3051">
    <style type="text/css" id="current-color-scheme">
      .ColorScheme-Text {
        color:#5d656b;
      }
      </style>
  </defs>
 <path style="fill:currentColor;fill-opacity:1;stroke:none" 
     d="M 3 2 L 3 3 L 3 4 L 2 4 L 2 5 L 3 5 L 3 11 L 2 11 L 2 12 L 3 12 L 3 13 L 3 14 L 5 14 L 7 14 L 14 14 L 14 13 L 14 7 L 14 2 L 13 2 L 3 2 z M 5 3 L 13 3 L 13 7 L 13 13 L 7 13 L 5 13 L 5 3 z M 6 4 L 6 5 L 12 5 L 12 4 L 6 4 z M 6 8 L 6 9 L 12 9 L 12 8 L 6 8 z M 10 11 L 10 12 L 12 12 L 12 11 L 10 11 z "
     class="ColorScheme-Text"
     />
</svg>
